!!!COM: Bach, Johann Sebastian
!!!OTL: 273. Ein' feste Burg ist unser Gott
!!!ONM: No. 273
!!!OCL: Erk
!!!SCA: BWV 80.8
!!!YOE: Riemenschneider, Albert
!!!OPR: 371 Harmonized Chorales and 69 Chorale Melodies with Figured Bass
!!!OPT: Bach Chorale Harmonizations
!!!ONB: From the end of Cantata 80.
**harm	**root	**kern	**kern	**kern	**kern
!	!	!bass	!tenor	!alto	!sprno
*Iorgan	*Iorgan	*Iorgan	*Iorgan	*Iorgan	*Iorgan
*>[A,A,B]	*>[A,A,B]	*>[A,A,B]	*>[A,A,B]	*>[A,A,B]	*>[A,A,B]
*>norep[A,B]	*>norep[A,B]	*>norep[A,B]	*>norep[A,B]	*>norep[A,B]	*>norep[A,B]
*>A	*>A	*>A	*>A	*>A	*>A
*k[f#c#g#d#a#]	*k[f#c#g#d#a#]	*k[f#c#g#d#a#]	*k[f#c#g#d#a#]	*k[f#c#g#d#a#]	*k[f#c#g#d#a#]
*B:	*B:	*B:	*B:	*B:	*B:
*met(c)	*met(c)	*met(c)	*met(c)	*met(c)	*met(c)
*M4/4	*M4/4	*M4/4	*M4/4	*M4/4	*M4/4
*MM60	*MM60	*MM60	*MM60	*MM60	*MM60
I	4DD	8B	8d#	4f#	4b
.	.	8A#	8c#	.	.
=1	=1	=1	=1	=1	=1
vi7	4BB	4G#	8B	8f#	4b
.	.	.	8c#	8e	.
Ic	4DD	8F#	8d#	8d#	4b
.	.	8E	8e	8c#	.
Ib	8DD	8D#	4f#	4B	8f#
IV	8GG	8E	.	.	8g#
viib	4CC#	8D#	4e	4c#	4a#
.	.	8C#	.	.	.
=2	=2	=2	=2	=2	=2
Ib	8DD	4D#	4d#	8F#	8b
iii	8FF#	.	.	4f#	8a#
V/V	4EE	4C#	8G#	.	4g#
.	.	.	8c#	8e#	.
V;	4AA;	4FF#;	4A#;	4c#;	4f#;
vi	4BB	4GG#	8D#	4g#	4b
.	.	.	8E#	.	.
=3	=3	=3	=3	=3	=3
Vb	4AA	8AA#	4F#	8c#	4a#
.	.	8BB	.	8d#	.
ii	4EE	4C#	8c#	4e	4g#
.	.	.	8B	.	.
iii	4FF#	4D#	4A#	8d#	4f#
.	.	.	.	8c#	.
IV	8GG	8E	8G#	8B	8g#
V	8AA	8F#	8A#	8A#	8f#
=4	=4	=4	=4	=4	=4
IVb	4GG	8G#	4B	4G#	8e
.	.	8E	.	.	8d#
V	4AA	8F#	8F#	4A#	4c#
.	.	8FF#	8E	.	.
I;	4DD;	4BB;	4D#;	4F#;	4B;
=:|!	=:|!	=:|!	=:|!	=:|!	=:|!
*>B	*>B	*>B	*>B	*>B	*>B
!! Repeat from the beginning.
!! Continuing.
I	4DD	8BB	8D#	4B	4B
.	.	8C#	8E	.	.
=5	=5	=5	=5	=5	=5
iii	4FF#	4D#	8F#	8A#	4f#
.	.	.	8B	8d#	.
Vb/V	4EE	4E#	8A#	4c#	4g#
.	.	.	8G#	.	.
V	4AA	8F#	4A#	8c#	4f#
.	.	8BB	.	8d#	.
V/V	4EE	4C#	4G#	4c#	4e#
=6	=6	=6	=6	=6	=6
!!linebreak: 2
V;	2AA;	2FF#;	2A#;	2c#;	2f#;
vi	4BB	4GG#	8D#	4B	4B
.	.	.	8E	.	.
Ib	4DD	4D#	4F#	8B	4f#
.	.	.	.	8A	.
=7	=7	=7	=7	=7	=7
IV	4GG	4E	4B	8G#	4g#
.	.	.	.	8B	.
viib	4CC#	4C#	4c#	4e	4a#
I;	4DD;	4BB;	4F#;	4d#;	4b;
iii	4FF#	4D#	4F#	4d#	4a#
=8	=8	=8	=8	=8	=8
vi7	4BB	4GG#	8F#	4d#	4b
.	.	.	8E#	.	.
Vb	4AA	4AA#	4F#	8c#	4a#
.	.	.	.	8f#	.
vi7b	4BB	4BB	4F#	4d#	2g#
V/V	4EE	4C#	4E#	8c#	.
.	.	.	.	8B	.
=9	=9	=9	=9	=9	=9
V;	4AA;	4FF#;	4C#;	4A#;	4f#;
ii	4EE	8C#	8E	4c#	4g#
.	.	8D#	8F#	.	.
IV	4GG	4E	8G#	8B	4g#
.	.	.	8A#	8c#	.
I	4DD	4BB	8B	4d#	4f#
.	.	.	8A	.	.
=10	=10	=10	=10	=10	=10
Vb/ii	4BB	4BB#	4G#	4d#	8g#
.	.	.	.	.	8f#
ii	4EE	4C#	4G#	8d#	4e
.	.	.	.	8c#	.
VI;	4BB;	4GG#;	4G#;	4B#;	4d#;
vi	4BB	4GG#	8G#	4d#	4b
.	.	.	8F#	.	.
=11	=11	=11	=11	=11	=11
viib	4CC#	8C#	8E	4c#	4a#
.	.	8D#	8F#	.	.
IV	8GG	8E	4G#	8B	4g#
ii	8EE	8C#	.	8e	.
V7b	8AA	8AA#	8c#	8e	4f#
V	8AA	8FF#	8A#	16d#	.
.	.	.	.	16c#	.
I	4DD	8BB	4B	4d#	8g#
.	.	8AA#	.	.	8f#
=12	=12	=12	=12	=12	=12
IVb	8GG	8GG#	4B	8e	8e
IV7	8GG	8EE	.	8G#	8d#
V	4AA	4FF#	8F#	4A#	4c#
.	.	.	8E	.	.
I;	4DD;	4BBB;	4D#;	4F#;	4B;
==	==	==	==	==	==
*-	*-	*-	*-	*-	*-
!!!CDT: 1685/3//-1750/7/28
!!!OCY: Deutschland
!!!AGN: chorale
!!!AST: Baroque
!!!AIN: vox
!!!YOY: 1941
!!!PPP: New York; London
!!!PPR: G. Schirmer
!!!ENC: David Huron
!!!EED: David Huron
!!!YEN: United States of America
!!!YER: 1992
!!!YEC: Copyright 1992 David Huron
!!!YEM: Rights to all derivative electronic formats reserved.
!!!YER: March 20, 1996
!!!AMT: simple quadruple
!!!EEV: 1.1
!!chor2scor: -l 2 -s 0.6 -o %b.pmx
